icons/TIIcon.svg

<svg width="24" height="24" viewBox="0 0 24 24" fill="none" xmlns="http://www.w3.org/2000/svg">
<g clip-path="url(#clip0)">
<path d="M4.43087 12.1552V11.3819C4.43087 11.3616 4.43469 11.3415 4.44212 11.3227C4.44954 11.304 4.46042 11.2869 4.47414 11.2726C4.48786 11.2582 4.50415 11.2468 4.52207 11.2391C4.54 11.2313 4.55921 11.2273 4.57861 11.2273H7.60621C7.64539 11.2273 7.68297 11.2436 7.71068 11.2726C7.73839 11.3016 7.75395 11.3409 7.75395 11.3819V12.1552C7.75395 12.1962 7.73839 12.2355 7.71068 12.2645C7.68297 12.2935 7.64539 12.3098 7.60621 12.3098H6.68296C6.67311 12.3092 6.66327 12.3109 6.65406 12.3145C6.64486 12.3182 6.6365 12.3239 6.62953 12.3312C6.62256 12.3385 6.61714 12.3472 6.61362 12.3569C6.61009 12.3665 6.60855 12.3768 6.60908 12.3871V16.4828C6.60864 16.5237 6.59293 16.5627 6.56532 16.5916C6.53771 16.6205 6.50039 16.6369 6.46134 16.6374H5.72291C5.68386 16.6369 5.64654 16.6205 5.61893 16.5916C5.59132 16.5627 5.57561 16.5237 5.57517 16.4828V12.3865C5.5757 12.3762 5.57416 12.3659 5.57063 12.3563C5.56711 12.3466 5.56169 12.3379 5.55472 12.3306C5.54775 12.3233 5.53939 12.3176 5.53019 12.3139C5.52098 12.3103 5.51114 12.3086 5.5013 12.3092H4.57833C4.53929 12.3091 4.50187 12.2929 4.47424 12.264C4.44661 12.2352 4.43102 12.196 4.43087 12.1552V12.1552ZM23.9997 4.0796V16.0569C23.9997 16.1331 23.9854 16.2085 23.9575 16.2789C23.9296 16.3493 23.8887 16.4132 23.8372 16.4671C23.7857 16.5209 23.7245 16.5636 23.6572 16.5926C23.5899 16.6217 23.5178 16.6366 23.445 16.6365H12.5539V19.9195C12.5539 20.0732 12.4955 20.2206 12.3917 20.3293C12.2878 20.438 12.1469 20.4991 12 20.4991H0.553894C0.407141 20.4991 0.266385 20.4382 0.162534 20.3297C0.0586833 20.2212 0.000226705 20.074 0 19.9204L0 7.9431C0 7.78938 0.0583566 7.64196 0.162232 7.53326C0.266107 7.42457 0.406992 7.3635 0.553894 7.3635H11.4461V4.0805C11.446 4.00431 11.4602 3.92884 11.488 3.85842C11.5158 3.78799 11.5566 3.72399 11.608 3.67008C11.6595 3.61616 11.7206 3.57339 11.7878 3.5442C11.8551 3.51502 11.9272 3.5 12 3.5H23.445C23.5919 3.5 23.7328 3.56106 23.8366 3.66976C23.9405 3.77846 23.9989 3.92588 23.9989 4.0796H23.9997ZM11.4461 8.5227H1.19991C1.17541 8.5227 1.1519 8.53289 1.13457 8.55102C1.11724 8.56916 1.1075 8.59375 1.1075 8.6194V19.2444C1.1075 19.27 1.11724 19.2946 1.13457 19.3128C1.1519 19.3309 1.17541 19.3411 1.19991 19.3411H11.3537C11.3782 19.3411 11.4017 19.3309 11.419 19.3128C11.4364 19.2946 11.4461 19.27 11.4461 19.2444V8.5227ZM19.163 11.8842C19.163 11.8432 19.1474 11.8039 19.1197 11.7749C19.092 11.7459 19.0544 11.7296 19.0152 11.7296H18.3878C18.3779 11.7302 18.3681 11.7285 18.3589 11.7249C18.3497 11.7212 18.3413 11.7155 18.3343 11.7082C18.3274 11.7009 18.3219 11.6922 18.3184 11.6825C18.3149 11.6729 18.3133 11.6626 18.3139 11.6523V8.4842C18.3133 8.4739 18.3149 8.4636 18.3184 8.45397C18.3219 8.44434 18.3274 8.43559 18.3343 8.4283C18.3413 8.421 18.3497 8.41533 18.3589 8.41164C18.3681 8.40796 18.3779 8.40634 18.3878 8.4069H18.9414C18.9608 8.4069 18.98 8.4029 18.9979 8.39513C19.0158 8.38736 19.0321 8.37597 19.0458 8.36162C19.0596 8.34726 19.0704 8.33022 19.0779 8.31146C19.0853 8.29271 19.0891 8.2726 19.0891 8.2523V7.5181C19.0891 7.4978 19.0853 7.47769 19.0779 7.45894C19.0704 7.44018 19.0596 7.42314 19.0458 7.40878C19.0321 7.39443 19.0158 7.38304 18.9979 7.37527C18.98 7.3675 18.9608 7.3635 18.9414 7.3635H16.6522C16.6328 7.3635 16.6136 7.3675 16.5957 7.37527C16.5777 7.38304 16.5614 7.39443 16.5477 7.40878C16.534 7.42314 16.5231 7.44018 16.5157 7.45894C16.5083 7.47769 16.5045 7.4978 16.5045 7.5181V8.2523C16.5045 8.2726 16.5083 8.29271 16.5157 8.31146C16.5231 8.33022 16.534 8.34726 16.5477 8.36162C16.5614 8.37597 16.5777 8.38736 16.5957 8.39513C16.6136 8.4029 16.6328 8.4069 16.6522 8.4069H17.2061C17.2159 8.40634 17.2258 8.40796 17.235 8.41164C17.2442 8.41533 17.2525 8.421 17.2595 8.4283C17.2665 8.43559 17.2719 8.44434 17.2754 8.45397C17.279 8.4636 17.2805 8.4739 17.28 8.4842V11.6523C17.2805 11.6626 17.279 11.6729 17.2754 11.6825C17.2719 11.6922 17.2665 11.7009 17.2595 11.7082C17.2525 11.7155 17.2442 11.7212 17.235 11.7249C17.2258 11.7285 17.2159 11.7302 17.2061 11.7296H16.5786C16.5394 11.7296 16.5019 11.7459 16.4741 11.7749C16.4464 11.8039 16.4309 11.8432 16.4309 11.8842V12.6184C16.4313 12.6593 16.447 12.6983 16.4746 12.7272C16.5022 12.7561 16.5396 12.7725 16.5786 12.773H19.0155C19.0546 12.7725 19.0919 12.7561 19.1195 12.7272C19.1471 12.6983 19.1628 12.6593 19.1633 12.6184L19.163 11.8842Z" fill="black"/>
</g>
<defs>
<clipPath id="clip0">
<rect width="24" height="17" fill="white" transform="translate(0 3.5)"/>
</clipPath>
</defs>
</svg>

<svg xmlns="http://www.w3.org/2000/svg" viewBox="0 0 24 24">
  <g clip-path="url(#clip0)">
    <path d="M4.43 12.155v-.773a.161.161 0 01.044-.11.146.146 0 01.105-.045h3.027c.04 0 .077.017.105.046a.158.158 0 01.043.109v.773c0 .041-.016.08-.043.11a.145.145 0 01-.105.045h-.923a.068.068 0 00-.053.021.073.073 0 00-.02.056v4.096a.16.16 0 01-.045.109.146.146 0 01-.104.045h-.738a.146.146 0 01-.104-.045.16.16 0 01-.044-.11v-4.095a.076.076 0 00-.02-.056.068.068 0 00-.053-.021h-.924a.144.144 0 01-.104-.046.158.158 0 01-.043-.109zM24 4.08v11.977a.603.603 0 01-.163.41.552.552 0 01-.392.17H12.554v3.282a.594.594 0 01-.162.41.542.542 0 01-.392.17H.554a.542.542 0 01-.391-.17A.593.593 0 010 19.92V7.943c0-.154.058-.301.162-.41a.542.542 0 01.392-.17h10.892V4.08a.603.603 0 01.162-.41A.554.554 0 0112 3.5h11.445c.147 0 .288.061.392.17a.593.593 0 01.162.41zM11.446 8.523H1.2a.09.09 0 00-.065.028.099.099 0 00-.028.068v10.625a.1.1 0 00.028.069.09.09 0 00.065.028h10.154a.09.09 0 00.065-.028.099.099 0 00.027-.069V8.523zm7.717 3.361a.158.158 0 00-.043-.11.145.145 0 00-.105-.044h-.627a.068.068 0 01-.054-.022.074.074 0 01-.02-.056V8.484a.076.076 0 01.02-.056.07.07 0 01.054-.021h.553a.142.142 0 00.105-.045.155.155 0 00.043-.11v-.734a.161.161 0 00-.043-.11.148.148 0 00-.105-.045h-2.289a.142.142 0 00-.104.046.155.155 0 00-.043.11v.733a.161.161 0 00.043.11.147.147 0 00.104.045h.554a.068.068 0 01.053.021.076.076 0 01.02.056v3.168a.076.076 0 01-.02.056.07.07 0 01-.053.022h-.627a.145.145 0 00-.105.045.158.158 0 00-.043.11v.733c0 .041.016.08.044.11a.146.146 0 00.104.045h2.436c.04 0 .077-.017.104-.046a.16.16 0 00.044-.109v-.734z"/>
  </g>
  <defs>
    <clipPath id="clip0">
      <path d="M0 0h24v17H0z" transform="translate(0 3.5)"/>
    </clipPath>
  </defs>
</svg>
